Obsidian-SemiLight/actions/16s/tools-rip-video-dvd.svg

<svg viewBox="0 0 16 16" xmlns="http://www.w3.org/2000/svg"><path d="m8 2a6 6.00001 0 0 0 -6 6 6 6.00001 0 0 0 5 5.914062v-1.016062a5 5 0 0 1 -4-4.898 5 5 0 0 1 5-5 5 5 0 0 1 5 5h1a6 6.00001 0 0 0 -6-6m.5 6c-.831 0-1.5.669-1.5 1.5 0 .654.418 1.202 1 1.408v3.092h4v-3c.554 0 1-.446 1-1s-.446-1-1-1-1 .446-1 1h-1.092c.056-.157.092-.323.092-.5 0-.831-.669-1.5-1.5-1.5m3.5 4 2 2v-4zm-3-1h2v2h-2z" fill="#4d4d4d"/></svg>

<svg xmlns="http://www.w3.org/2000/svg" viewBox="0 0 16 16">
  <defs id="defs3051">
    <style type="text/css" id="current-color-scheme">
      .ColorScheme-Text {
        color:#4d4d4d;
      }
      </style>
  </defs>
 <path style="fill:currentColor;fill-opacity:1;stroke:none" 
     d="M8 2A6 6.00001 0 0 0 2 8 6 6.00001 0 0 0 7 13.914062V12.898A5 5 0 0 1 3 8 5 5 0 0 1 8 3 5 5 0 0 1 13 8H14A6 6.00001 0 0 0 8 2M8.5 8C7.669 8 7 8.669 7 9.5 7 10.154 7.418 10.702 8 10.908V14H12V11C12.554 11 13 10.554 13 10 13 9.446 12.554 9 12 9 11.446 9 11 9.446 11 10H9.908C9.964 9.843 10 9.677 10 9.5 10 8.669 9.331 8 8.5 8M12 12L14 14V10zM9 11H11V13H9z"
     class="ColorScheme-Text"
     />
</svg>
